X:1
T:Title
%%score { ( 1 3 5 ) | ( 2 4 ) }
L:1/8
M:4/4
K:C
V:1 treble nm="Grand Piano"
V:3 treble 
V:5 treble 
V:2 bass 
V:4 bass 
V:1
 z4 z2[Q:1/4=100] C>E | z2 E>E E2 e>c | z2 E>E E2 [Ec]>[Gc] | B2 d>d A>A B>A | G2 F2 z4 | %5
 z2 E>E E2 e>c | z2 E>E E2 [Ec]>[Gc] | B>B g>f e2 d2 |[M:3/4] [Ec]6 |[M:1/4] c>c | %10
[M:4/4] z2 d4 z2 | z2 F>F E2 c>c | Bd d->[^Fd-] [Fd-]>[Fd] (3[F-d][Fc]A | [B,G]2 [Gg]>[Gg] [Gg]4- | %14
 [Gg]2 [EG]>[EG] [EG]2 z2 | z2 [EG]>[EG] [EG]2 [EG]>[EG] | G2 G>G G>G G>G | %17
 [EG]>[EG] [DG]>[DG] [CG]2 z2 | z2 [EG]>[EG] [EG]>[G,EG] z2 | z2 [EG]>[EG] [EG]2 [EG]>[EG] | %20
 G2 G>G ^F>F F>F | z4 g4- | g2 z2 [Ge]4- | [Ge]2 z2 z4 | [CAc]<[Ac] [Ag]>[Af] e<e d>d | [Ec]6 z2 | %26
[M:1/4] c>c |[M:4/4] z2 d4 z2 | z2 F>F E2 c>c | Bd d->[^Fd-] [Fd-]>[Fd] (3[F-d][Fc]A | %30
 [B,G]2 [Gg]>[Gg] [Gg]4- | [Gg]2 [EG]>[EG] [EG]2 z2 | z2 [EG]>[EG] [EG]2 [EG]>[EG] | %33
 G2 G>G G>G G>G | [EG]>[EG] [DG]>[DG] [CG]2 z2 | z2 [EG]>[EG] [EG]>[G,EG] z2 | %36
 z2 [EG]>[EG] [EG]2 [EG]>[EG] | G2 G>G ^F>F F>F | z4 g4- | g2 z2 [Ge]4- | [Ge]2 z2 z4 | %41
 [CAc]<C- [C-Ag]>[C-Af] [C-e]<[Ce] d>d | [Ec]6 z2 | c3 c c3 c | c2 c2 c4 | c3 c c3 c | %46
 d2 B2 [EGc]4 | c3 c c3 c | c2 c2 c2 c>c | c3 c d2 g2 | [EGc]6 z2 | e3 f dd z2 | d3 e cc z2 | %53
 g3 c cc z2 | c2 B2 [Ec]2 z2 | [Ge]4 z4 | d4 z4 | g4 z4 |[M:7/8] [EGc]2 [FB]2 [CEc]3 |] %59
V:2
 z8 | z2 [C,G,]>[C,G,] [C,G,]2 z2 | z2 [C,C]>[C,C] [C,C]2 [C,G,]>[E,C] | %3
 [G,DF]2 [G,B,F]>[G,B,F] [G,CF]>[G,CF] [G,DF]>[G,B,F] | [C,C]>[C,C] [C,G,D]>[C,G,] [C,G,C]2 z2 | %5
 z2 [C,G,]>[C,G,] [C,G,]2 z2 | z2 [C,C]>[C,C] [C,C]2 [C,G,]>[C,C] | %7
 [G,DF]>[G,DF] [G,B,F]>[G,B,A] [G,CG]2 [G,B,F]2 |[M:3/4][K:bass] [C,C]6 |[M:1/4] z2 | %10
[M:4/4] z2[K:treble] [G,B,F]>[G,B,] [G,B,]<[G,B,] z2 | z2[K:bass] [G,D]>[G,D] [C,C]2 z2 | %12
 z2 [D,A,]>[D,A,] [D,A,]>[D,A,] (3:2:2D,2 ^F | z4 G,4 | G,6 z2 | G,6 z2 | %16
 [G,B,F]2 [G,DF]>[G,DF] [G,A,F]>[G,A,F] [G,B,F]>[G,A,F] | z2 F,2 z4 | G,6 z2 | G,6 z2 | %20
 [G,B,F]2 [G,DF]>[G,DF][K:bass] [D,D]>[D,A,D] [D,D]>[D,D] | [G,B,]2[K:treble] [G,G]>[G,G] G4- | %22
 [E,G]>G,[K:bass] G,>G, z2 (3C,E,G, | E,>G, G,>G, G,2 E,>E, | %24
 F,<F, F,>F,[K:treble] [G,G]<[G,G] [G,B,F]>[G,B,F] | [C,C]6 z2 |[M:1/4] z2 | %27
[M:4/4] z2[K:treble] [G,B,F]>[G,B,] [G,B,]<[G,B,] z2 | z2[K:bass] [G,D]>[G,D] [C,C]2 z2 | %29
 z2 [D,A,]>[D,A,] [D,A,]>[D,A,] (3:2:2D,2 ^F | z4 G,4 | G,6 z2 | G,6 z2 | %33
 [G,B,F]2 [G,DF]>[G,DF] [G,A,F]>[G,A,F] [G,B,F]>[G,A,F] | z2 F,2 z4 | G,6 z2 | G,6 z2 | %37
 [G,B,F]2 [G,DF]>[G,DF][K:bass] [D,D]>[D,A,D] [D,D]>[D,D] | [G,B,]2[K:treble] [G,G]>[G,G] G4- | %39
 [E,G]>G,[K:bass] G,>G, z2 (3C,E,G, | E,>G, G,>G, G,2 E,>E, | %41
 F,<F, F,>F,[K:treble] [G,G]<[G,G] [G,B,F]>[G,B,F] | [C,C]6 z2 | [CEG]3 [CEG] [_B,EG]3 [B,EG] | %44
 [A,CF]2 [A,CF]2 [^G,C^F]4 | [G,EG]3 [G,EG] [G,EG]3 [G,EG] | [G,FG]2 [G,FG]2[K:bass] C,2 C,2 | %47
 [CEG]3 [CEG] [_B,EG]3 [B,EG] | [A,CF]2 [A,CF]2 [^G,C^F]2 [G,CF]>[G,CF] | %49
 [G,EG]3 [G,EG] [G,FG]2 [G,FG]2 | C,6 z2 | [CG]3 [CG] [A,C^F][A,CF] z2 | %52
 [G,B,F]3 [G,B,F] [G,CE][G,CE] z2 | [G,EG]3 [G,EG] [G,EG][G,EG] z2 | %54
 [EG]2 [DF]2[K:bass] [C,C]2 z2 | [C,C]C,C,[C,C][K:treble] [A,C^F][A,CF]A,A, | %56
 F-[G,F-][G,F][G,B,F] [G,CE][G,CE]G,G, | .[G,G]2 z2 z4[K:bass] |[M:7/8] z2 D2 C,3 |] %59
V:3
 x8 | G6 z2 | G6 z2 | x8 | E>E z z/ D/ E2 C>E | G6 z2 | G6 z2 | x8 |[M:3/4] x6 |[M:1/4] x2 | %10
[M:4/4] Bd z z/ F/ F<F B>A | G6 z2 | z2 ^F2 z2 z z/ C/ | x8 | x8 | x8 | x8 | G,2 z2 z4 | x8 | x8 | %20
 x8 | G2 g>g z2 (3C,E,G, | z z/ [Ec]/ [Fd]>[Af] z4 | z z/ [Ec]/ [Fd]>[Af] [Ge]2 [CGc]>[CGc] | %24
 z/ C3/2- C4 z2 | x8 |[M:1/4] x2 |[M:4/4] Bd z z/ F/ F<F B>A | G6 z2 | z2 ^F2 z2 z z/ C/ | x8 | %31
 x8 | x8 | x8 | G,2 z2 z4 | x8 | x8 | x8 | G2 g>g z2 (3C,E,G, | z z/ [Ec]/ [Fd]>[Af] z4 | %40
 z z/ [Ec]/ [Fd]>[Af] [Ge]2 [CGc]>[CGc] | z/ [Ac]3/2 z2 z4 | x8 | x8 | x8 | x8 | x8 | x8 | x8 | %49
 x8 | x8 | x8 | x8 | x8 | x8 | z CC[Gf] ddCC | z B,B,e ccCC | z GGc ccGG |[M:7/8] x7 |] %59
V:4
 x8 | x8 | x8 | x8 | x8 | x8 | x8 | x8 |[M:3/4][K:bass] x6 |[M:1/4] x2 |[M:4/4] x2[K:treble] x6 | %11
 x2[K:bass] x6 | z4 z2 A,>D, | G,2 G,>G, z2 C,>E, | z2 C,>C, C,2 E>C | z2 C,>C, C,2 [C,C]>[C,C] | %16
 x8 | C,>C, C,>C, [C,E,]2 C,>E, | z2 C,>C, C,>C, E>C | z2 C,>C, C,2 [C,C]>[C,C] | x4[K:bass] x4 | %21
 z4[K:treble] G,4 | z4[K:bass] G,4 | x8 | x4[K:treble] x4 | x8 |[M:1/4] x2 | %27
[M:4/4] x2[K:treble] x6 | x2[K:bass] x6 | z4 z2 A,>D, | G,2 G,>G, z2 C,>E, | z2 C,>C, C,2 E>C | %32
 z2 C,>C, C,2 [C,C]>[C,C] | x8 | C,>C, C,>C, [C,E,]2 C,>E, | z2 C,>C, C,>C, E>C | %36
 z2 C,>C, C,2 [C,C]>[C,C] | x4[K:bass] x4 | z4[K:treble] G,4 | z4[K:bass] G,4 | x8 | %41
 x4[K:treble] x4 | x8 | x8 | x8 | x8 | x4[K:bass] x4 | x8 | x8 | x8 | x8 | x8 | x8 | x8 | %54
 G,4[K:bass] z4 | x4[K:treble] x4 | .[G,B,]2 z2 z4 | E-[G,E]G,[G,EG] [G,EG][G,EG][K:bass]G,G, | %58
[M:7/8] G,- G,3 z z2 |] %59
V:5
 x8 | x8 | x8 | x8 | x8 | x8 | x8 | x8 |[M:3/4] x6 |[M:1/4] x2 |[M:4/4] x8 | x8 | x8 | x8 | x8 | %15
 x8 | x8 | x8 | x8 | x8 | x8 | x8 | C6 z2 | C6 z2 | x8 | x8 |[M:1/4] x2 |[M:4/4] x8 | x8 | x8 | %30
 x8 | x8 | x8 | x8 | x8 | x8 | x8 | x8 | x8 | C6 z2 | C6 z2 | x8 | x8 | x8 | x8 | x8 | x8 | x8 | %48
 x8 | x8 | x8 | x8 | x8 | x8 | x8 | x8 | x8 | x8 |[M:7/8] x7 |] %59

